X: 21
T:Ciaran Kelly's
M:4/4
L:1/8
C:Reel
H:(*)
K:G
G2BG dGBG | F2AF dFAF | G2BG dGBG | cBAG FAD2 :|!
Bdgd BGG2 | ABcd e4 | Bdgd BGG2 | cBAG FAD2 :||
